X:1
T:Weil Ich Jesu Schäflein Bin, 77.88.77
T:Weil Ich Jesu Schäflein Bin, 77.88.77
T:Brüder Choral-Buch, 1784
T:Public Domain Courtesy of the Cyber Hymnal™
C:Brüder Choral-Buch, 1784
Z:Public Domain
Z:Courtesy of the Cyber Hymnal™
%%score 1 ( 2 3 )
L:1/8
Q:1/4=112
M:4/4
K:Db
V:1 treble 
V:2 bass 
V:3 bass 
V:1
 [FA]2 [Fd]2 [DB]2 [DB]2 | [CA]2 [EG]2 [DF]4 | [FA]2 [Fd]2 [DB]2 [DB]2 | [CA]2 [EG]2 [DF]4 | %4
 [FA]2 [Dd]2 [DB]2 [DB]2 | [EB]2 [Ee]2 [Ec]2 [EA]2 | [FA]2 [Dd]2 [DB]2 [DB]2 | %7
 [EB]2 [Ee]2 [Ec]2 [EA]2 | [Fd]2 [DA]2 [DB]2 [CA]2 | [B,G]2 [DF]2 [CE]4 | [DA]2 [Dd]2 [DB]2 [Ge]2 | %11
 [Fd]2 [Ec]2 [Fd]4 |] %12
V:2
 [D,D]2 [D,A,]2 [G,,G,]2 [G,,G,]2 | [A,,E,]2 [C,A,]2 [D,A,]4 | [D,D]2 [D,A,]2 [G,,G,]2 [G,,G,]2 | %3
 [A,,E,]2 [C,A,]2 [D,A,]4 | [D,D]2 [F,A,]2 G,2 G,2 | [E,=G,]2 [G,B,]2 A,2 [A,C]2 | %6
 [D,D]2 [F,A,]2 G,2 G,2 | [E,=G,]2 [G,B,]2 A,2 [A,C]2 | [D,A,]2 [D,F,]2 [G,,G,]2 [A,,E,]2 | %9
 E,2 [F,A,]2 A,4 | [D,F,]2 [F,A,]2 G,2 [E,B,]2 | A,2 [A,,A,]2 [D,A,]4 |] %12
V:3
 x8 | x8 | x8 | x8 | x4 G,2 G,2 | x4 A,2 x2 | x4 G,2 G,2 | x4 A,2 x2 | x8 | E,2 A,4 x2 | %10
 x4 G,2 x2 | A,2 x6 |] %12

